svg/education/balance_fill.svg

<?xml version="1.0" encoding="UTF-8"?>
<svg width="24px" height="24px" viewBox="0 0 24 24" version="1.1" xmlns="http://www.w3.org/2000/svg" xmlns:xlink="http://www.w3.org/1999/xlink">
    <title>scale_fill</title>
    <g id="页面-1" stroke="none" stroke-width="1" fill="none" fill-rule="evenodd">
        <g id="Education" transform="translate(-912.000000, -48.000000)">
            <g id="scale_fill" transform="translate(912.000000, 48.000000)">
                 <path d="M24,0 L24,24 L0,24 L0,0 L24,0 Z M12.5934901,23.257841 L12.5819402,23.2595131 L12.5108777,23.2950439 L12.4918791,23.2987469 L12.4918791,23.2987469 L12.4767152,23.2950439 L12.4056548,23.2595131 C12.3958229,23.2563662 12.3870493,23.2590235 12.3821421,23.2649074 L12.3780323,23.275831 L12.360941,23.7031097 L12.3658947,23.7234994 L12.3769048,23.7357139 L12.4804777,23.8096931 L12.4953491,23.8136134 L12.4953491,23.8136134 L12.5071152,23.8096931 L12.6106902,23.7357139 L12.6232938,23.7196733 L12.6232938,23.7196733 L12.6266527,23.7031097 L12.609561,23.275831 C12.6075724,23.2657013 12.6010112,23.2592993 12.5934901,23.257841 L12.5934901,23.257841 Z M12.8583906,23.1452862 L12.8445485,23.1473072 L12.6598443,23.2396597 L12.6498822,23.2499052 L12.6498822,23.2499052 L12.6471943,23.2611114 L12.6650943,23.6906389 L12.6699349,23.7034178 L12.6699349,23.7034178 L12.678386,23.7104931 L12.8793402,23.8032389 C12.8914285,23.8068999 12.9022333,23.8029875 12.9078286,23.7952264 L12.9118235,23.7811639 L12.8776777,23.1665331 C12.8752882,23.1545897 12.8674102,23.1470016 12.8583906,23.1452862 L12.8583906,23.1452862 Z M12.1430473,23.1473072 C12.1332178,23.1423925 12.1221763,23.1452606 12.1156365,23.1525954 L12.1099173,23.1665331 L12.0757714,23.7811639 C12.0751323,23.7926639 12.0828099,23.8018602 12.0926481,23.8045676 L12.108256,23.8032389 L12.3092106,23.7104931 L12.3186497,23.7024347 L12.3186497,23.7024347 L12.3225043,23.6906389 L12.340401,23.2611114 L12.337245,23.2485176 L12.337245,23.2485176 L12.3277531,23.2396597 L12.1430473,23.1473072 Z" id="MingCute" fill-rule="nonzero"></path>
                <path d="M12,3 C12.5523,3 13,3.44772 13,4 L13,5 L13.7639,5 C14.0744,5 14.3806,5.07229 14.6584,5.21115 L16.2361,6 L18,6 L20,6 C20.5523,6 21,6.44772 21,7 C21,7.55228 20.5523,8 20,8 L19.618,8 L21.8944,12.5528 C21.9639,12.6916 22,12.8448 22,13 C22,15.2091 20.2091,17 18,17 C15.7909,17 14,15.2091 14,13 C14,12.8448 14.0361,12.6916 14.1056,12.5528 L16.382,8 L16.2361,8 C15.9256,8 15.6194,7.92771 15.3416,7.78885 L13.7639,7 L13,7 L13,19 L16,19 C16.5523,19 17,19.4477 17,20 C17,20.5523 16.5523,21 16,21 L8,21 C7.4477,21 7,20.5523 7,20 C7,19.4477 7.4477,19 8,19 L11,19 L11,7 L10.2361,7 L8.65836,7.78885 C8.38065,7.92771 8.07442,8 7.76393,8 L7.61803,8 L9.89443,12.5528 C9.96385,12.6916 10,12.8448 10,13 C10,15.2091 8.20914,17 6,17 C3.79086,17 2,15.2091 2,13 C2,12.8448 2.03615,12.6916 2.10557,12.5528 L4.38197,8 L4,8 C3.44772,8 3,7.55228 3,7 C3,6.44772 3.44772,6 4,6 L6,6 L7.76393,6 L9.34164,5.21115 C9.61935,5.07229 9.92558,5 10.2361,5 L11,5 L11,4 C11,3.44772 11.4477,3 12,3 Z" id="路径" fill="#09244B"></path>
            </g>
        </g>
    </g>
</svg>

<svg xmlns="http://www.w3.org/2000/svg" width="24" height="24"><g fill="none" fill-rule="evenodd"><path d="M24 0v24H0V0h24ZM12.593 23.258l-.011.002-.071.035-.02.004-.014-.004-.071-.035c-.01-.004-.019-.001-.024.005l-.004.01-.017.428.005.02.01.013.104.074.015.004.012-.004.104-.074.012-.016.004-.017-.017-.427c-.002-.01-.009-.017-.017-.018Zm.265-.113-.013.002-.185.093-.01.01-.003.011.018.43.005.012.008.007.201.093c.012.004.023 0 .029-.008l.004-.014-.034-.614c-.003-.012-.01-.02-.02-.022Zm-.715.002a.023.023 0 0 0-.027.006l-.006.014-.034.614c0 .012.007.02.017.024l.015-.002.201-.093.01-.008.004-.011.017-.43-.003-.012-.01-.01-.184-.092Z"/><path fill="#09244B" d="M12 3a1 1 0 0 1 1 1v1h.764a2 2 0 0 1 .894.211L16.236 6H20a1 1 0 1 1 0 2h-.382l2.276 4.553c.07.139.106.292.106.447a4 4 0 0 1-8 0c0-.155.036-.308.106-.447L16.382 8h-.146a2 2 0 0 1-.894-.211L13.764 7H13v12h3a1 1 0 1 1 0 2H8a1 1 0 1 1 0-2h3V7h-.764l-1.578.789A2 2 0 0 1 7.764 8h-.146l2.276 4.553A1 1 0 0 1 10 13a4 4 0 0 1-8 0 1 1 0 0 1 .106-.447L4.382 8H4a1 1 0 0 1 0-2H7.764l1.578-.789A2 2 0 0 1 10.236 5H11V4a1 1 0 0 1 1-1Z"/></g></svg>
